!!!COM: Palestrina, Giovanni Perluigi da
!!!OPR: Vestiva i colli
!!!OTL: Credo
**kern	**kern	**kern	**kern	**kern
*Ibass	*Itenor	*Itenor	*Icalto	*Icant
!Bassus	!Tenor 2	!Tenor 1	!Altus	!Cantus
*clefF4	*clefGv2	*clefGv2	*clefG2	*clefG2
*k[]	*k[]	*k[]	*k[]	*k[]
*A:aeo	*A:aeo	*A:aeo	*A:aeo	*A:aeo
*M4/2	*M4/2	*M4/2	*M4/2	*M4/2
=1	=1	=1	=1	=1
0r	0r	0r	1r	1a
.	.	.	1d	2a
.	.	.	.	2a
=2	=2	=2	=2	=2
0r	0r	1r	2d	2dd
.	.	.	2d	2dd
.	.	1A	2.a	4cc
.	.	.	.	4b
.	.	.	.	4cc
.	.	.	4b	4dd
=3	=3	=3	=3	=3
0r	0r	2A	2cc	1ee
.	.	2A	2cc	.
.	.	2d	2b	2dd
.	.	2d	2a	2ff
=4	=4	=4	=4	=4
0r	0r	4c	2.cc	2.ee
.	.	4B	.	.
.	.	4c	.	.
.	.	4d	8b	8dd
.	.	.	8a	8cc
.	.	4e	2g#	2b
.	.	8d	.	.
.	.	8e	.	.
.	.	2f	[2a	2a
=5	=5	=5	=5	=5
0r	1r	1.e	2a]	2.b
.	.	.	2g#	.
.	.	.	.	8a
.	.	.	.	8b
.	1A	.	1a	4cc
.	.	.	.	4dd
.	.	2c	.	[2ee
=6	=6	=6	=6	=6
1D	2A	2f	[0a	2ee]
.	2A	2f	.	4dd
.	.	.	.	4cc
2D	2d	1f	.	1dd
2D	2d	.	.	.
=7	=7	=7	=7	=7
2.A	4c	1e	1a]	0ee
.	4B	.	.	.
.	4c	.	.	.
4B	4d	.	.	.
2c	1e	1A	2r	.
2c	.	.	2a	.
=8	=8	=8	=8	=8
1B	1d	2r	2a	1r
.	.	2d	2g#	.
1A	1e	2c	2.a	2r
.	.	2A	.	2a
.	.	.	4b	.
=9	=9	=9	=9	=9
0r	1r	1e	2cc	2a
.	.	.	2b	2g#
.	2r	1A	2.cc	2.a
.	2a	.	.	.
.	.	.	4b	4b
=10	=10	=10	=10	=10
0r	2a	2A	2a	2cc
.	2g#	2e	2.b	2b
.	2a	1A	.	1cc
.	.	.	4a	.
.	2A	.	[2a	.
=11	=11	=11	=11	=11
1r	2.e	2r	2a]	1b
.	.	2e	2g#	.
.	4d	.	.	.
2r	2c#	2e	[1a	1a
2d	2d	2f	.	.
=12	=12	=12	=12	=12
2d	1A	1e	0a]	1ee
2c#	.	.	.	.
2d	2r	2.f	.	2.dd
2D	[2d	.	.	.
.	.	4g	.	4ee
=13	=13	=13	=13	=13
2.A	2d]	2a	0r	2ff
.	2c	2a	.	2.ee
4G	.	.	.	.
2F	1f	1a	.	.
.	.	.	.	4dd
2D	.	.	.	[2dd
=14	=14	=14	=14	=14
0A	[0e	1a	1r	2dd]
.	.	.	.	4cc
.	.	.	.	4b
.	.	1r	2.a	2cc
.	.	.	.	[2ee
.	.	.	4a	.
=15	=15	=15	=15	=15
1r	1e]	1r	2cc	4ee]
.	.	.	.	4ee
.	.	.	2b	2gg
2.A	1r	2r	1a	2ff
.	.	[2e	.	[2ee
4A	.	.	.	.
=16	=16	=16	=16	=16
2c	0r	4e]	1g	2ee]
.	.	4e	.	.
2B	.	2g	.	2.dd
2A	.	2f	2.a	.
.	.	.	.	4cc
[2A	.	2e	.	2cc
.	.	.	4b	.
=17	=17	=17	=17	=17
2A]	0r	2c	2cc	2a
2G	.	2d	2.b	2b
1F	.	4A	.	2.cc
.	.	4B	4a	.
.	.	4c	[2a	.
.	.	4A	.	4dd
=18	=18	=18	=18	=18
1E	2r	1B	2a]	1ee
.	2.e	.	2g#	.
2.A	.	2A	1a	1cc
.	4e	.	.	.
.	2f	[2a	.	.
4A	.	.	.	.
=19	=19	=19	=19	=19
2c	2e	4a]	1r	0r
.	.	4a	.	.
2B	2.d	2g	.	.
[1A	.	2f	2.a	.
.	4c	.	.	.
.	2c	4e	.	.
.	.	4d	4a	.
=20	=20	=20	=20	=20
2A]	2A	1e	2cc	0r
2G	2B	.	2b	.
2F	2.c	2A	2a	.
2F	.	2A	2a	.
.	4d	.	.	.
=21	=21	=21	=21	=21
0E	0e	1B	4g	2r
.	.	.	4f	.
.	.	.	4e	2.ee
.	.	.	4f	.
.	.	1r	4g	.
.	.	.	4a	4ee
.	.	.	4b	2gg
.	.	.	4g	.
=22	=22	=22	=22	=22
0r	0r	2.A	4a	2ff
.	.	.	4b	.
.	.	.	1cc	1ee
.	.	4A	.	.
.	.	2c	.	.
.	.	2G	[2b	2dd
=23	=23	=23	=23	=23
0r	1r	2A	4b]	2cc
.	.	.	4a	.
.	.	2A	1a	4b
.	.	.	.	4a
.	2r	1e	.	1b
.	[2e	.	2g#	.
=24	=24	=24	=24	=24
2.A	4e]	0r	1a	0cc
.	4e	.	.	.
.	2e	.	.	.
4A	.	.	.	.
2A	2c	.	2.a	.
2F	[2f	.	.	.
.	.	.	4a	.
=25	=25	=25	=25	=25
1.c	2f]	1r	2a	2r
.	2e	.	2g	2.ee
.	2g	2.e	[1cc	.
.	.	.	.	4ee
2A	[2a	.	.	2ee
.	.	4e	.	.
=26	=26	=26	=26	=26
1A	4a]	2e	2cc]	0cc
.	8g	.	.	.
.	8f	.	.	.
.	2e	1c	2a	.
2.F	2.f	.	1a	.
.	.	[2f	.	.
4E	4g	.	.	.
=27	=27	=27	=27	=27
0D	2a	4f]	2.f	2.ff
.	.	4e	.	.
.	1A	2d	.	.
.	.	.	4g	4ee
.	.	2f	1a	2dd
.	[2d	2d	.	[2ff
=28	=28	=28	=28	=28
1A	4d]	2e	1a	2ff]
.	4c	.	.	.
.	2c	1A	.	1ee
1D	1f	.	1a	.
.	.	[2d	.	2dd
=29	=29	=29	=29	=29
1A	2e	2d]	2.a	1ee
.	2a	2c#	.	.
.	.	.	4g	.
2r	4a	2.d	1f	2dd
.	4a	.	.	.
2d	2a	.	.	4dd
.	.	4e	.	4dd
=30	=30	=30	=30	=30
4d	2d	2f	2a	2dd
4d	.	.	.	.
2d	1f	2d	4a	2a
.	.	.	4a	.
2A	.	1r	2a	2.cc
[2c	2e	.	2g	.
.	.	.	.	4dd
=31	=31	=31	=31	=31
4c]	2.c	2e	1cc	0ee
4B	.	.	.	.
1A	.	4e	.	.
.	4B	4e	.	.
.	2A	2e	2cc	.
2G#	[2e	2B	[2b	.
=32	=32	=32	=32	=32
1A	2e]	2c	4b]	1ee
.	.	.	4a	.
.	2e	2c	1a	.
1E	2e	2B	.	2.ee
.	2e	2B	2g#	.
.	.	.	.	4dd
=33	=33	=33	=33	=33
1A	1e	4A	[0a	4cc
.	.	4B	.	4b
.	.	4c	.	4a
.	.	4d	.	4b
1r	2.A	4e	.	4cc
.	.	4d	.	4dd
.	.	4c	.	4ee
.	4A	8d	.	8dd
.	.	8e	.	8cc
=34	=34	=34	=34	=34
2.D	2d	1f	0a]	2dd
.	2d	.	.	2dd
4D	.	.	.	.
2.A	4c	1e	.	1ee
.	4B	.	.	.
.	4c	.	.	.
4B	4d	.	.	.
=35	=35	=35	=35	=35
2c	4e	1r	0r	0r
.	8d	.	.	.
.	8e	.	.	.
2A	2f	.	.	.
1c	2e	2.A	.	.
.	[2a	.	.	.
.	.	4A	.	.
=36	=36	=36	=36	=36
1B-	2a]	1.d	0r	1r
.	2g	.	.	.
1A	2f	.	.	2.a
.	2e	2c	.	.
.	.	.	.	4a
=37	=37	=37	=37	=37
0r	4f	2B-	2.d	2dd
.	8e	.	.	.
.	8f	.	.	.
.	2g	2G	.	2dd
.	.	.	4d	.
.	2e	1A	2.a	4cc
.	.	.	.	4b
.	[2A	.	.	4cc
.	.	.	4b	4dd
=38	=38	=38	=38	=38
0r	4A]	0r	2cc	2ee
.	4A	.	.	.
.	2d	.	2a	2ff
.	2c	.	2cc	2ee
.	2d	.	[2b	[2dd
=39	=39	=39	=39	=39
0r	2f	0r	4b]	4dd]
.	.	.	4a	4cc
.	2f	.	1a	4cc
.	.	.	.	8b
.	.	.	.	8a
.	2.e	.	.	1b
.	.	.	2g#	.
.	4d	.	.	.
=40	=40	=40	=40	=40
2r	2c#	2r	[0a	1a
2d	2d	2f	.	.
2d	1A	2e	.	1r
2c#	.	2e	.	.
=41	=41	=41	=41	=41
2d	2r	1d	1a]	1ff
2D	2d	.	.	.
1A	2d	1e	2r	2ee
.	2c	.	2a	2ee
=42	=42	=42	=42	=42
2F	1f	1r	2a	1dd
2D	.	.	2a	.
2A	1e	2r	1cc	2ee
2A	.	2a	.	2ee
=43	=43	=43	=43	=43
1E	1e	2a	1b	2.ee
.	.	2g#	.	.
.	.	.	.	4dd
1r	2.A	2a	2r	4cc
.	.	.	.	4b
.	.	2A	2a	[2cc
.	4A	.	.	.
=44	=44	=44	=44	=44
0r	2c	1e	2g	2cc]
.	2G	.	2g	1b
.	1A	2c	2.cc	.
.	.	2A	.	[2a
.	.	.	8b	.
.	.	.	8a	.
=45	=45	=45	=45	=45
1r	1r	2e	2b	2a]
.	.	2e	2b	2g#
2.A	2r	1e	2.cc	2a
.	[2e	.	.	2ee
4A	.	.	8b	.
.	.	.	8a	.
=46	=46	=46	=46	=46
2c	4e]	0r	1g	2ee
.	4e	.	.	.
2B	2g	.	.	2.dd
[1A	2f	.	2r	.
.	.	.	.	4cc
.	2e	.	[2a	2cc
=47	=47	=47	=47	=47
1A]	4c	2.e	4a]	1a
.	4d	.	4a	.
.	4e	.	2cc	.
.	4c	4e	.	.
2G	2.d	2g	2b	1r
2D	.	2f	2a	.
.	4c	.	.	.
=48	=48	=48	=48	=48
2.E	4B	1e	2g	0r
.	4G	.	.	.
.	1g	.	2.b	.
4F	.	.	.	.
2G	.	2d	.	.
.	.	.	4a	.
2A	2e	2c	[2a	.
=49	=49	=49	=49	=49
2E	1e	1B	4a]	2.ee
.	.	.	8g#	.
.	.	.	8f#	.
2E	.	.	2g#	.
.	.	.	.	4ee
2D	[1A	2d	[1a	2ff
2A	.	2c	.	2ee
=50	=50	=50	=50	=50
2.D	1A]	2f	0a]	2dd
.	.	2f	.	1dd
4E	.	.	.	.
1F	1r	2.f	.	.
.	.	.	.	2cc
.	.	4e	.	.
=51	=51	=51	=51	=51
1G	2.d	2d	2.g	1b
.	.	2G	.	.
.	4d	.	4g	.
1A	2d	1r	2f	[1a
.	2c	.	2e	.
=52	=52	=52	=52	=52
1r	1f	2.d	1d	0a]
.	.	4d	.	.
2.A	1e	2d	2A	.
.	.	2c	[2a	.
4A	.	.	.	.
=53	=53	=53	=53	=53
2A	1A	1f	4a]	1r
.	.	.	4a	.
2F	.	.	2a	.
1c	1r	4e	1g	2r
.	.	4d	.	.
.	.	4c	.	[2ee
.	.	4d	.	.
=54	=54	=54	=54	=54
1C	2.c	4e	1.cc	4ee]
.	.	4f	.	4ee
.	.	4g	.	2ee
.	4B	4e	.	.
2.F	1A	2.f	.	2cc
.	.	.	2a	[2ff
4E	.	4g	.	.
=55	=55	=55	=55	=55
1.D	2A	1a	2.f	2ff]
.	1d	.	.	2dd
.	.	.	4e	.
.	.	2.a	2d	2ff
2A	2c#	.	2e	2ee
.	.	4g	.	.
=56	=56	=56	=56	=56
2D	2d	2f	2a	2dd
2A	2e	2e	2a	2cc#
1D	2.f	1d	1a	2dd
.	.	.	.	2ff
.	8e	.	.	.
.	8d	.	.	.
=57	=57	=57	=57	=57
1A	2c#	2e	0a	2ee
.	2d	2f	.	2.dd
1A	1e	2e	.	.
.	.	.	.	8cc#
.	.	.	.	8b
.	.	[2a	.	2cc#
=58	=58	=58	=58	=58
[0D	2.f	2a]	2r	1dd
.	.	2d	1a	.
.	4e	.	.	.
.	4d	2.f	.	2r
.	4e	.	.	.
.	4f	.	2d	[2dd
.	4g	4e	.	.
=59	=59	=59	=59	=59
1D]	1a	2d	1f	2dd]
.	.	2d	.	2a
2r	1r	2c	2e	2cc
[2d	.	[2f	4d	2b
.	.	.	4e	.
=60	=60	=60	=60	=60
2d]	1a	2f]	4f	4a
.	.	.	4g	4b
2A	.	2e	2a	4cc
.	.	.	.	4dd
2.c	2e	1e	1g	1ee
.	2g	.	.	.
4B	.	.	.	.
=61	=61	=61	=61	=61
1A	2f	1r	4a	2.cc
.	.	.	4b	.
.	2.e	.	4cc	.
.	.	.	4a	4dd
2G#	.	1e	2b	[1ee
.	4d	.	.	.
2A	2c	.	[2a	.
=62	=62	=62	=62	=62
1E	2B	1e	2a]	2ee]
.	2B	.	2g#	2b
1A	1A	2e	2a	2cc
.	.	2e	2cc	2ee
=63	=63	=63	=63	=63
1r	1r	2f	2a	2cc
.	.	2d	2b	2dd
1A	2r	2c	2.cc	1ee
.	2e	2c	.	.
.	.	.	4b	.
=64	=64	=64	=64	=64
2F	2f	2c	2a	0r
2G	2d	2B	4g	.
.	.	.	4f	.
2A	2c	2c	[1e	.
[2A	4A	[2c	.	.
.	4B	.	.	.
=65	=65	=65	=65	=65
2A]	4c	2c]	1e]	0r
.	4d	.	.	.
4G	2.e	4B	.	.
4F	.	4A	.	.
2.G	.	2.B	1r	.
.	4d	.	.	.
.	[2d	.	.	.
4F	.	4A	.	.
=66	=66	=66	=66	=66
2E	2d]	2G	1r	0r
2E	2c#	2G	.	.
1D	1d	2A	2r	.
.	.	2f	2a	.
=67	=67	=67	=67	=67
0r	0r	2d	2f	2r
.	.	2e	2g	2ee
.	.	1f	1a	2cc
.	.	.	.	2dd
=68	=68	=68	=68	=68
0r	0r	2e	2g	1ee
.	.	2c	1cc	.
.	.	1g	.	2dd
.	.	.	[2b	2dd
=69	=69	=69	=69	=69
0r	2r	1a	4b]	2.cc
.	.	.	4a	.
.	2f	.	1a	.
.	.	.	.	8b
.	.	.	.	8a
.	2d	1r	.	1b
.	2e	.	2g#	.
=70	=70	=70	=70	=70
1F	1.f	2r	1a	1a
.	.	2a	.	.
2D	.	2f	1r	1r
2E	2e	2g	.	.
=71	=71	=71	=71	=71
1.F	2d	1a	2r	2r
.	4c	.	2a	2ff
.	4B	.	.	.
.	2A	2r	2f	2dd
2E	2B	2g	2g	2ee
=72	=72	=72	=72	=72
2D	1d	2f	2.a	2.ff
2D	.	1d	.	.
.	.	.	4g	4ee
2D	1A	.	2f	2dd
2A	.	2e	2e	2cc#
=73	=73	=73	=73	=73
2.D	1a	2.f	1d	2dd
.	.	.	.	2a
4E	.	4e	.	.
4F	2f	2d	2r	[1a
4G	.	.	.	.
2A	2e	2c#	2e	.
=74	=74	=74	=74	=74
0D	2d	1d	2f	0a]
.	2.f	.	4d	.
.	.	.	4d	.
.	.	1A	1f	.
.	4e	.	.	.
.	[2d	.	.	.
=75	=75	=75	=75	=75
[0A	2d]	[0A	[0e	[0a
.	4c#	.	.	.
.	4B	.	.	.
.	1c#	.	.	.
=76	=76	=76	=76	=76
0A]	0c#	0A]	0e]	0a]
=77	=77	=77	=77	=77
0r	0r	1d	1r	1a
.	.	1f	1d	1dd
=78	=78	=78	=78	=78
1r	1A	2e	1a	1cc#
.	.	2.a	.	.
1D	1d	.	1f	1dd
.	.	4g	.	.
.	.	2f	.	.
=79	=79	=79	=79	=79
1A	1.c	1e	1.cc	1ee
1F	.	1f	.	2.a
.	[2f	.	2a	.
.	.	.	.	4b
=80	=80	=80	=80	=80
1c	2f]	1g	0g	0cc
.	4e	.	.	.
.	4d	.	.	.
1c	2e	2r	.	.
.	2e	2c	.	.
=81	=81	=81	=81	=81
1F	1f	1c	2r	1a
.	.	.	2f	.
1r	2r	2d	2f	1r
.	2c	2e	2g	.
=82	=82	=82	=82	=82
1F	1.c	2.f	2.a	0r
.	.	4g	4g	.
1F	.	1a	4f	.
.	.	.	4e	.
.	2d	.	4d	.
.	.	.	4c	.
=83	=83	=83	=83	=83
2G	2e	2g	2B	0r
2A	1f	4f	4A	.
.	.	4e	2a	.
1B-	.	1d	.	.
.	.	.	8g	.
.	.	.	8f	.
.	4e	.	2g	.
.	4d	.	.	.
=84	=84	=84	=84	=84
1A	2c	2e	1a	2r
.	2A	1f	.	1cc
1r	2a	.	2f	.
.	2g	2e	2g	2cc
=85	=85	=85	=85	=85
0r	2f	2d	2a	2dd
.	2e	2g	2g	2ee
.	2d	2f	2a	2ff
.	2d	2f	2b	2ff
=86	=86	=86	=86	=86
0C	2c	1g	1cc	1ee
.	1G	.	.	.
.	.	1e	1g	[1cc
.	[2c	.	.	.
=87	=87	=87	=87	=87
1F	2c]	1.f	1a	1cc]
.	1A	.	.	.
1D	.	.	1a	1ff
.	[2d	2d	.	.
=88	=88	=88	=88	=88
1A	2d]	2e	1a	2ee
.	2c#	2.a	.	2ee
2.D	2.d	.	2.f	2dd
.	.	4g	.	.
.	.	4f	.	[2ff
4E	8c	4e	4g	.
.	8B	.	.	.
=89	=89	=89	=89	=89
2.F	[0A	4d	0a	4ff]
.	.	4c	.	4ee
.	.	2f	.	2.dd
4G	.	.	.	.
1A	.	1e	.	.
.	.	.	.	8cc#
.	.	.	.	8b
.	.	.	.	2cc#
=90	=90	=90	=90	=90
0D	0A]	0d	0f#	0dd
*	*	*	*	*-
!! Crucifixus
*Itenor	*Icalto	*Icant	*Icant
!Tenor	!Altus	!Cantus 2	!Cantus 1
*clefGv2	*clefG2	*clefG2	*clefG2
*k[]	*k[]	*k[]	*k[]
*A:aeo	*A:aeo	*A:aeo	*A:aeo
*M4/2	*M4/2	*M4/2	*M4/2
=91	=91	=91	=91
0r	1.d	0r	1r
.	.	.	[1a
.	2d	.	.
=92	=92	=92	=92
0r	2.f	0r	2a]
.	.	.	2a
.	4g	.	.
.	2a	.	2cc
.	2b-	.	2dd
=93	=93	=93	=93
0r	2a	1r	2ee
.	4f	.	2ff
.	4g	.	.
.	4a	[1a	2ee
.	4b	.	.
.	[2cc	.	4a
.	.	.	4b
=94	=94	=94	=94
1.A	4cc]	2a]	4cc
.	4b	.	4dd
.	2cc	2a	4ee
.	.	.	4dd
.	[1a	2.cc	4ee
.	.	.	4ff
2A	.	.	[2ee
.	.	4dd	.
=95	=95	=95	=95
2c	1a]	2ee	2ee]
2d	.	2ff	4dd
.	.	.	4cc
2e	2g	2ee	2b
2f	[2a	4cc	2a
.	.	4dd	.
=96	=96	=96	=96
1e	2a]	4ee	1b
.	.	4ff	.
.	2g	2.gg	.
4c	4e	.	1r
4d	4f	4ff	.
4e	4g	2ee	.
4f	4a	.	.
=97	=97	=97	=97
2g	2b	2dd	0r
2a	1a	2cc	.
1e	.	1b	.
.	2g#	.	.
=98	=98	=98	=98
2r	2a	1a	2r
2d	2a	.	2dd
2f	2a	1r	2dd
2e	2g	.	2cc#
=99	=99	=99	=99
2.d	[0a	2r	2dd
.	.	2dd	1ff
4e	.	.	.
4f	.	2dd	.
4g	.	.	.
2a	.	2cc#	[2ee
=100	=100	=100	=100
1d	1a]	2dd	4ee]
.	.	.	4dd
.	.	1ff	2dd
2.a	1r	.	1cc
.	.	[2ee	.
4g	.	.	.
=101	=101	=101	=101
1f	2r	4ee]	2.a
.	.	4dd	.
.	2a	2dd	.
.	.	.	4b
1e	2g	1ee	4cc
.	.	.	4b
.	[2cc	.	2ee
=102	=102	=102	=102
1g	2cc]	1r	0dd
.	2b	.	.
2f	2a	2r	.
2d	[2b	2dd	.
=103	=103	=103	=103
1f	4b]	2cc	0r
.	4a	.	.
.	1a	2a	.
2.e	.	2cc	.
.	2g	[2b	.
4d	.	.	.
=104	=104	=104	=104
2c	2e	4b]	1r
.	.	4a	.
2d	2f	1a	.
1B	2.d	.	2r
.	.	2g#	2dd
.	4e	.	.
=105	=105	=105	=105
1A	4f	4a	2cc
.	4g	4b	.
.	2.a	4cc	2a
.	.	4dd	.
2A	.	2ee	2cc
.	8g#	.	.
.	8f#	.	.
2e	2g#	[2ee	[2b
=106	=106	=106	=106
2c	1a	2ee]	4b]
.	.	.	4a
2d	.	2ff	1a
1B	1d	2dd	.
.	.	2dd	2g#
=107	=107	=107	=107
0A	1e	1cc#	1a
.	2r	2r	2r
.	2e	2ee	2a
=108	=108	=108	=108
1r	2f	2cc	2a
.	2e	2dd	2b
2r	2.c	1ee	4cc
.	.	.	4cc
2A	.	.	2ee
.	4d	.	.
=109	=109	=109	=109
2A	2e	2.a	2cc
2d	2f	.	2dd
.	.	4b	.
2c	1g	1cc	2ee
2c	.	.	2ee
=110	=110	=110	=110
2.A	2.cc	0r	2.ee
4c	4cc	.	4ee
2G	2b	.	2dd
2A	[2a	.	2cc
=111	=111	=111	=111
1e	4a]	2r	1b
.	8g#	.	.
.	8f#	.	.
.	2g#	2ee	.
[1f	2a	2dd	1r
.	[2a	2cc	.
=112	=112	=112	=112
2f]	2a]	2dd	1r
2e	2g	2ee	.
2d	2f	[1a	2r
2c#	2e	.	2ee
=113	=113	=113	=113
2d	2f	2a]	2dd
2A	4e	2ee	2cc#
.	4e	.	.
2.a	2d	2ff	2dd
.	2c#	2ee	2ee
4g	.	.	.
=114	=114	=114	=114
1f	2d	1dd	2.a
.	1a	.	.
.	.	.	4b
1e	.	2.ee	2cc
.	4g#	.	2b
.	4f#	8dd	.
.	.	8cc	.
=115	=115	=115	=115
2d	2g#	2b	1ee
2a	2a	2cc	.
2a	1e	1b	2r
2g#	.	.	2ee
=116	=116	=116	=116
2.a	0r	2r	2ee
.	.	2a	2cc
4g	.	.	.
2f	.	2a	2dd
2e	.	2g	2ee
=117	=117	=117	=117
1d	1r	2a	1ff
.	.	2b	.
1A	2r	1cc	[1ee
.	2a	.	.
=118	=118	=118	=118
1e	2a	2b	1ee]
.	2g	2ee	.
1r	2.a	2ee	2r
.	.	2cc	2a
.	4g	.	.
=119	=119	=119	=119
1r	2f	2dd	2a
.	2e	2ee	2g
2r	2.d	[1ff	1a
2d	.	.	.
.	4e	.	.
=120	=120	=120	=120
2d	4f	2ff]	2a
.	4g	.	.
2c	1a	2ee	2a
2d	.	2r	1b
2e	2g#	2ee	.
=121	=121	=121	=121
2f	2r	2ee	1a
2f	2a	2dd	.
1e	2a	2.ee	2r
.	2g#	.	2ee
.	.	4dd	.
=122	=122	=122	=122
0r	2a	2cc	2ee
.	2b	2b	2dd
.	2.cc	2a	2.ee
.	.	2a	.
.	4b	.	4dd
=123	=123	=123	=123
0r	2a	2.ee	2cc
.	2g#	.	2.b
.	.	4dd	.
.	1a	1cc	.
.	.	.	4a
.	.	.	[2a
=124	=124	=124	=124
1r	2.e	1b	2a]
.	.	.	2g#
.	4d	.	.
2r	4c	1a	4a
.	4B	.	4b
2a	2A	.	4cc
.	.	.	4a
=125	=125	=125	=125
2a	1e	2r	1b
2g#	.	2ee	.
2.a	2r	2ee	1r
.	2a	2cc	.
4g	.	.	.
=126	=126	=126	=126
2f	2a	2dd	1r
2e	2g	2ee	.
[1d	2.a	2.ff	2r
.	.	.	2dd
.	4g	4ee	.
=127	=127	=127	=127
2d]	2f	2dd	2dd
2A	2e	2ee	2cc#
2d	2f	[1a	2dd
2c#	2e	.	2ee
=128	=128	=128	=128
2d	1.d	0a]	2ff
2.f	.	.	1ff
8e	.	.	.
8d	.	.	.
2c#	2e	.	2ee
=129	=129	=129	=129
0d	0f	[0a	0dd
=130	=130	=130	=130
0A	0e	0a]	0cc#
!! Et iterum
*Ibass	*Itenor	*Itenor	*Icalto
!Bassus	!Tenor 2	!Tenor 1	!Altus
*clefF4	*clefGv2	*clefGv2	*clefG2
*k[]	*k[]	*k[]	*k[]
*A:aeo	*A:aeo	*A:aeo	*A:aeo
*M4/2	*M4/2	*M4/2	*M4/2
=131	=131	=131	=131
1D	1r	0r	0r
2.F	1A	.	.
4G	.	.	.
=132	=132	=132	=132
2A	2c	0r	0r
2F	2d	.	.
2G	1e	.	.
2A	.	.	.
=133	=133	=133	=133
4D	1f	0r	0r
4E	.	.	.
4F	.	.	.
4G	.	.	.
4A	2e	.	.
4B	.	.	.
4c	2e	.	.
4A	.	.	.
=134	=134	=134	=134
4B	4d	0r	0r
4A	4c	.	.
1A	4c	.	.
.	8B	.	.
.	8A	.	.
.	1B	.	.
2G#	.	.	.
=135	=135	=135	=135
0A	4A	2r	1r
.	4B	.	.
.	4c	2A	.
.	4d	.	.
.	1e	2.c	2r
.	.	.	2e
.	.	4d	.
=136	=136	=136	=136
0r	0r	2e	2.g
.	.	2c	.
.	.	.	4a
.	.	2d	1b
.	.	2e	.
=137	=137	=137	=137
0r	0r	4A	1.cc
.	.	4B	.
.	.	4c	.
.	.	4d	.
.	.	4e	.
.	.	4f	.
.	.	4g	2b
.	.	4e	.
=138	=138	=138	=138
2r	0r	1.f	1.a
2D	.	.	.
2F	.	.	.
2G	.	4e	4g
.	.	4d	4f
=139	=139	=139	=139
2A	2r	2c	2e
2F	2a	1d	2d
2G	2g	.	1e
2A	2e	2c#	.
=140	=140	=140	=140
2D	2f	1d	1a
2d	2f	.	.
2c	[1e	1r	2r
2A	.	.	2a
=141	=141	=141	=141
2.c	2e]	1r	2g
.	2g	.	2e
4B	.	.	.
2A	2f	2r	2cc
2G	2g	2d	[2b
=142	=142	=142	=142
1A	1.e	2c	4b]
.	.	.	4a
.	.	2A	1a
2r	.	2c	.
2d	2d	2B	2g#
=143	=143	=143	=143
2c	1e	4A	2a
.	.	4B	.
2A	.	4c	2a
.	.	4d	.
2.c	2r	1e	2g
.	2g	.	2e
4B	.	.	.
=144	=144	=144	=144
4A	2f	0r	1.a
4G	.	.	.
4F	2d	.	.
4E	.	.	.
2D	2f	.	.
2E	[2e	.	2g
=145	=145	=145	=145
2F	4e]	1r	2a
.	4d	.	.
2G	1d	.	2b
1E	.	2r	1g
.	2c#	2g	.
=146	=146	=146	=146
0D	2d	2f	1r
.	2a	2d	.
.	2.a	2.f	2r
.	.	.	2a
.	4g	4e	.
=147	=147	=147	=147
0r	2f	2d	2.a
.	1e	2c#	.
.	.	.	4g
.	.	1d	2f
.	[2d	.	2f
=148	=148	=148	=148
0r	2d]	1A	2e
.	2c#	.	2e
.	2d	2f	1d
.	[2d	2f	.
=149	=149	=149	=149
1A	2d]	1e	0r
.	2c#	.	.
2F	2d	1r	.
2G	[2e	.	.
=150	=150	=150	=150
1A	4e]	1e	2r
.	4d	.	.
.	4c	.	1a
.	4B	.	.
1r	2A	2c	.
.	2d	2d	2f
=151	=151	=151	=151
0r	2c	0e	2g
.	4A	.	1a
.	4B	.	.
.	4c	.	.
.	4d	.	.
.	4e	.	2g
.	4c	.	.
=152	=152	=152	=152
1r	2d	0r	2f
.	2.e	.	2g
1A	.	.	1e
.	4d	.	.
.	[2c	.	.
=153	=153	=153	=153
2F	2c]	2r	1d
2G	2B	2g	.
[1A	[1c	2f	1r
.	.	2e	.
=154	=154	=154	=154
2A]	2c]	2f	2r
2G	2B	2.e	2g
2F	2A	.	2a
.	.	4d	.
2G	2B	[2d	2d
=155	=155	=155	=155
1E	1G	2d]	1g
.	.	2c#	.
2D	1A	2d	2f
[2D	.	[2d	2a
=156	=156	=156	=156
2D]	2r	2d]	2f
2E	2e	2c	2g
1F	2c	2A	1a
.	2d	2A	.
=157	=157	=157	=157
2C	1.e	4c	2g
.	.	4d	.
4C	.	4e	1cc
4D	.	4f	.
4E	.	2.g	.
4F	.	.	.
2G	2d	.	[2b
.	.	4f	.
=158	=158	=158	=158
2A	2c	2e	4b]
.	.	.	4a
2D	2d	2f	1a
2r	1B	1d	.
2d	.	.	2g#
=159	=159	=159	=159
2d	2A	1e	[0a
2c#	2.e	.	.
1d	.	2.f	.
.	4d	.	.
.	[2d	.	.
.	.	4d	.
=160	=160	=160	=160
1A	2d]	1e	1a]
.	2c#	.	.
2r	2d	1f	2r
[2D	[2d	.	2a
=161	=161	=161	=161
2D]	2d]	2r	2f
2E	2c	2e	2g
1F	2A	2c	1a
.	2A	2d	.
=162	=162	=162	=162
2C	4c	1.e	2g
.	4d	.	.
4C	4e	.	1cc
4D	4f	.	.
4E	1g	.	.
4F	.	.	.
2G	.	2d	[2b
=163	=163	=163	=163
2A	2e	2c	4b]
.	.	.	4a
2D	2f	2d	1a
1E	1e	1B	.
.	.	.	2g#
=164	=164	=164	=164
2.F	2c	1A	[0a
.	2c	.	.
4E	.	.	.
2D	2f	2r	.
2C#	2e	2e	.
=165	=165	=165	=165
0D	2.d	2.f	1a_
.	4e	4e	.
.	1f	1d	1a_
=166	=166	=166	=166
0A	0e	0c#	0a]
*-	*-	*-	*-
!! Et in Spiritum
**kern	**kern	**kern	**kern	**kern
*Ibass	*Itenor	*Itenor	*Icalto	*Icant
!Bassus	!Tenor 2	!Tenor 1	!Altus	!Cantus
*clefF4	*clefGv2	*clefGv2	*clefG2	*clefG2
*k[]	*k[]	*k[]	*k[]	*k[]
*A:aeo	*A:aeo	*A:aeo	*A:aeo	*A:aeo
*M4/2	*M4/2	*M4/2	*M4/2	*M4/2
=167	=167	=167	=167	=167
0r	0r	0r	1r	2.a
.	.	.	.	4a
.	.	.	2.d	2dd
.	.	.	.	2dd
.	.	.	4d	.
=168	=168	=168	=168	=168
0r	0r	0r	2a	4cc
.	.	.	.	4b
.	.	.	2a	4cc
.	.	.	.	4dd
.	.	.	2g	2ee
.	.	.	2cc	2ee
=169	=169	=169	=169	=169
0r	0r	1r	2b	2dd
.	.	.	2.a	2.ff
.	.	2.A	.	.
.	.	.	4g	4ee
.	.	.	2e	[2ee
.	.	4A	.	.
=170	=170	=170	=170	=170
2.D	0r	2d	2f	2ee]
.	.	2d	2f	2dd
4D	.	.	.	.
2A	.	4c	2.e	[1ee
.	.	4B	.	.
2A	.	4c	.	.
.	.	4d	4f	.
=171	=171	=171	=171	=171
2G	0r	2e	1g	1ee]
2c	.	2e	.	.
2B	.	2d	2r	1r
[2A	.	[2f	[2a	.
=172	=172	=172	=172	=172
4A]	1r	4f]	2a]	0r
4G	.	4e	.	.
2E	.	1e	2g	.
2F	2r	.	2.a	.
2F	[2a	2d	.	.
.	.	.	4b	.
=173	=173	=173	=173	=173
1E	2a]	1e	2cc	2r
.	2g#	.	2b	1ee
1r	2a	2r	2cc	.
.	2f	[2a	4b	2dd
.	.	.	4a	.
=174	=174	=174	=174	=174
0r	2.e	2a]	2cc	1.ee
.	.	2g#	2.b	.
.	4d	.	.	.
.	2c	2a	.	.
.	.	.	4a	.
.	2d	2f	[2a	2dd
=175	=175	=175	=175	=175
2r	1B	2d	2a]	4dd
.	.	.	.	4cc
1d	.	2d	2g#	4dd
.	.	.	.	4ee
.	1A	2r	[1a	2ff
2c#	.	[2a	.	2ee
=176	=176	=176	=176	=176
2d	2r	2a]	1a]	1dd
2D	1d	2f	.	.
2.A	.	2e	2r	1ee
.	2c#	2A	[2a	.
4G	.	.	.	.
=177	=177	=177	=177	=177
4F	2d	1.a	2a]	2r
4E	.	.	.	.
2D	2d	.	2f	1dd
1A	2.e	.	2e	.
.	.	2a	2A	2cc#
.	4e	.	.	.
=178	=178	=178	=178	=178
1D	1d	1f	2a	2dd
.	.	.	2b	2dd
1r	4c	2g	2cc	1ee
.	4d	.	.	.
.	4e	2c	[2cc	.
.	4f	.	.	.
=179	=179	=179	=179	=179
0r	1.g	4c	2cc]	2ee
.	.	4d	.	.
.	.	4e	4b	2ee
.	.	4f	4a	.
.	.	1g	2b	2dd
.	2c	.	[2cc	2ee
=180	=180	=180	=180	=180
1r	1G	1g	2cc]	1dd
.	.	.	2b	.
2.A	1c	2r	1cc	1ee
.	.	[2e	.	.
4A	.	.	.	.
=181	=181	=181	=181	=181
2c	0r	4e]	1r	0r
.	.	4e	.	.
2B	.	2g	.	.
2A	.	2f	2.a	.
[2A	.	2e	.	.
.	.	.	4a	.
=182	=182	=182	=182	=182
2A]	2.e	2A	2cc	0r
2G	.	2B	2b	.
.	4e	.	.	.
2F	2f	1c	2a	.
2C	2e	.	[2g	.
=183	=183	=183	=183	=183
2D	1d	2A	2g]	1r
2D	.	1a	2f	.
1E	2c	.	1e	2.ee
.	2B	2g#	.	.
.	.	.	.	4ee
=184	=184	=184	=184	=184
0r	0A	1a	2r	2ff
.	.	.	2.a	2ee
.	.	2.e	.	4cc
.	.	.	4a	4dd
.	.	.	2cc	4ee
.	.	4e	.	8dd
.	.	.	.	8ee
=185	=185	=185	=185	=185
0r	1r	2g	2b	4dd
.	.	.	.	4cc
.	.	2f	1a	4b
.	.	.	.	4a
.	2r	1e	.	1b
.	2e	.	2g#	.
=186	=186	=186	=186	=186
2A	4e	2A	1a	1cc
.	4e	.	.	.
4A	2f	2a	.	.
4A	.	.	.	.
2c	2e	4a	1r	1r
.	.	4a	.	.
2B	[2d	2g	.	.
=187	=187	=187	=187	=187
1.A	2d]	2f	2a	0r
.	4c	4e	4a	.
.	4B	4d	4a	.
.	2A	1e	2cc	.
2G	2B	.	2b	.
=188	=188	=188	=188	=188
1F	2c	1A	1a	1r
.	2d	.	.	.
1E	1e	1B	1g#	2r
.	.	.	.	[2ee
=189	=189	=189	=189	=189
2.A	2.c	0r	2r	4ee]
.	.	.	.	4ee
.	.	.	2.a	2ee
4A	4c	.	.	.
2A	2e	.	.	2cc
.	.	.	4a	.
2F	2f	.	2a	[2ff
=190	=190	=190	=190	=190
2.c	1g	2r	2g	2ff]
.	.	1c	2.cc	4ee
4B	.	.	.	4dd
4A	2r	.	.	2ee
4G	.	.	4b	.
4F	[2a	2c	4a	[2ff
4E	.	.	4g	.
=191	=191	=191	=191	=191
2D	2a]	2d	2f	2ff]
2C#	2a	2e	1a	1ee
1D	2.f	2A	.	.
.	.	2A	2a	[2dd
.	8e	.	.	.
.	8d	.	.	.
=192	=192	=192	=192	=192
0A	0e	2A	2.a	2dd]
.	.	2.a	.	4cc#
.	.	.	8g	4b
.	.	.	8f	.
.	.	.	2e	1cc#
.	.	4g	.	.
.	.	2a	2A	.
=193	=193	=193	=193	=193
1D	1d	2f	2r	1dd
.	.	2f	2a	.
1r	1r	2d	2f	2r
.	.	2c	2g	2ee
=194	=194	=194	=194	=194
0r	1r	1f	1a	2cc
.	.	.	.	2dd
.	2r	4e	2g	1ee
.	.	4d	.	.
.	2e	4c	2cc	.
.	.	4B	.	.
=195	=195	=195	=195	=195
0r	2c	2A	2cc	2ee
.	2d	2B	2b	2dd
.	1e	4c	1g	2cc
.	.	4d	.	.
.	.	4e	.	4b
.	.	4f	.	4a
=196	=196	=196	=196	=196
0r	2e	4g	0r	4b
.	.	4e	.	4cc
.	2d	2f	.	2.b
.	2c	2e	.	.
.	.	.	.	4a
.	2d	2f	.	[2a
=197	=197	=197	=197	=197
1r	1B	1d	2r	2a]
.	.	.	1d	2g#
2r	1A	2r	.	1a
2A	.	2e	2c#	.
=198	=198	=198	=198	=198
2F	0r	2A	2d	0r
2G	.	2B	2.e	.
2.A	.	2.c	.	.
.	.	.	4e	.
.	.	.	2e	.
4A	.	4c	.	.
=199	=199	=199	=199	=199
2A	0r	2c	2f	0r
2G	.	2B	2.e	.
2F#	.	2A	.	.
.	.	.	4d	.
2G	.	2B	2d	.
=200	=200	=200	=200	=200
1E	2r	1G	2d	1r
.	2g	.	2c#	.
1D	2g	1A	1d	2r
.	2f#	.	.	2dd
=201	=201	=201	=201	=201
0r	2g	0r	2r	2dd
.	2a	.	2a	2cc#
.	2f	.	2a	2dd
.	2e	.	2g	2ee
=202	=202	=202	=202	=202
0r	4d	2r	2.a	2.ff
.	4e	.	.	.
.	4f	2d	.	.
.	4g	.	4g	4ee
.	2.a	2d	2f	2dd
.	.	2c#	2e	2ee
.	4g	.	.	.
=203	=203	=203	=203	=203
0r	2f	2d	2d	0a
.	2e	2e	2c#	.
.	1d	2.f	2d	.
.	.	.	[2a	.
.	.	4e	.	.
=204	=204	=204	=204	=204
1r	0r	2d	2a]	1b
.	.	2e	2g#	.
2r	.	1A	1a	[1cc
[2A	.	.	.	.
=205	=205	=205	=205	=205
2A]	2r	1e	0r	2cc]
2G#	1e	.	.	2b
2A	.	1r	.	2cc
2B	2d	.	.	2b
=206	=206	=206	=206	=206
2.c	2e	2r	0r	2a
.	2e	1c	.	2g
4B	.	.	.	.
2A	1e	.	.	2a
2G	.	2B	.	2b
=207	=207	=207	=207	=207
1F	1A	2c	2r	2.a
.	.	2d	1a	.
.	.	.	.	4b
1E	2r	2.e	.	2cc
.	[2e	.	2g	2b
.	.	4d	.	.
=208	=208	=208	=208	=208
0r	2e]	2c	2a	2a
.	2d	2B	2b	2g
.	2e	1A	2cc	1a
.	2f#	.	2cc	.
=209	=209	=209	=209	=209
0r	2.g	[0G	1b	2d
.	.	.	.	4g
.	4f	.	.	4a
.	2e	.	1g	4b
.	.	.	.	4cc
.	2d	.	.	[2dd
=210	=210	=210	=210	=210
0r	1e	0G]	0g	2dd]
.	.	.	.	1cc
.	1d	.	.	.
.	.	.	.	2b
=211	=211	=211	=211	=211
1r	1e	0c	1g	1cc
[1A	1e	.	[1cc	[1a
=212	=212	=212	=212	=212
1A]	1.c	1e	1cc]	1a]
1F	.	1f	1a	1cc
.	[2f	.	.	.
=213	=213	=213	=213	=213
0c	2f]	2g	0g	0cc
.	4e	2c	.	.
.	4d	.	.	.
.	1e	2r	.	.
.	.	[2c	.	.
=214	=214	=214	=214	=214
1F	1.f	2c]	1a	1cc
.	.	2c	.	.
1r	.	2d	1r	2r
.	2g	2e	.	[2cc
=215	=215	=215	=215	=215
0r	2.a	2.f	2r	2cc]
.	.	.	1f	2cc
.	4g	4g	.	.
.	2f	2a	.	2dd
.	2e	2g	2g	2ee
=216	=216	=216	=216	=216
0r	1d	1f	2a	1ff
.	.	.	2b	.
.	2c	1g	[1cc	1ee
.	2e	.	.	.
=217	=217	=217	=217	=217
2r	1f	2.a	2cc]	1.cc
1F	.	.	2a	.
.	.	4g	.	.
.	1c	2.f	1a	.
2F	.	.	.	2a
.	.	4e	.	.
=218	=218	=218	=218	=218
2G	0r	2d	2g	2b-
2A	.	2c	2.f	1a
1B-	.	1d	.	.
.	.	.	4e	.
.	.	.	[2d	2g
=219	=219	=219	=219	=219
1A	2r	1e	2d]	1a
.	2e	.	2c	.
[1F	2d	[1a	[1f	2r
.	4c	.	.	[2cc
.	4B	.	.	.
=220	=220	=220	=220	=220
2F]	2A	2a]	2f]	2cc]
2E	1c	2g	2g	2cc
1D	.	1f	2a	1dd
.	2B	.	2d	.
=221	=221	=221	=221	=221
2C	0c	1e	1g	2ee
2c	.	.	.	2ee
2A	.	1r	2a	2ee
4A	.	.	2a	4ee
4A	.	.	.	4ee
=222	=222	=222	=222	=222
2d	0r	1r	4a	2ff
.	.	.	4a	.
2G	.	.	2b	2dd
2.c	.	2r	1g	2.ee
.	.	2e	.	.
4B	.	.	.	4dd
=223	=223	=223	=223	=223
1A	0r	2e	1.a	4cc
.	.	.	.	4b
.	.	4e	.	1cc
.	.	4e	.	.
1r	.	2f	.	.
.	.	2d	2f	2dd
=224	=224	=224	=224	=224
0r	2r	2e	2g	2b
.	2a	2c	2e	2ee
.	2a	1d	4f	4dd
.	.	.	4g	4ee
.	4a	.	4a	4ff
.	4a	.	4f	4dd
=225	=225	=225	=225	=225
1r	2b-	2G	4g	4ee
.	.	.	4f	4dd
.	2g	2B-	4e	1dd
.	.	.	4d	.
2r	[1a	1A	1e	.
2A	.	.	.	4cc#
.	.	.	.	4b
=226	=226	=226	=226	=226
2A	2a]	0r	1e	1cc#
4A	2a	.	.	.
4A	.	.	.	.
2B-	2f	.	1d	2dd
2G	4g	.	.	2b-
.	4f	.	.	.
=227	=227	=227	=227	=227
1.A	4e	2e	2r	1a
.	4d	.	.	.
.	4c	2e	2a	.
.	4B	.	.	.
.	1c	4e	2a	2r
.	.	4e	.	.
2F	.	2f	4a	2a
.	.	.	4a	.
=228	=228	=228	=228	=228
2G	1g	1d	2b-	2.dd
2B-	.	.	2g	.
.	.	.	.	4dd
1A	1r	2e	2a	2cc
.	.	2c	2a	2ee
=229	=229	=229	=229	=229
1D	1r	2d	4f	1dd
.	.	.	4g	.
.	.	2f	4a	.
.	.	.	4b	.
2.A	2r	2e	1cc	1ee
.	2e	2A	.	.
4A	.	.	.	.
=230	=230	=230	=230	=230
2G#	2e	2B	2b	1ee
2A	4e	2c	2a	.
.	4e	.	.	.
2D	2f	4d	4b	1r
.	.	4c	4a	.
2F	2d	4B	[2a	.
.	.	4A	.	.
=231	=231	=231	=231	=231
0E	2.e	1B	2a]	2r
.	.	.	4g#	2b
.	4e	.	4f#	.
.	1e	2B	1g#	2b
.	.	2e	.	4b
.	.	.	.	4b
=232	=232	=232	=232	=232
1r	1A	2e	[0a	2cc#
.	.	4e	.	2cc#
.	.	4e	.	.
1D	2d	2f	.	2dd
.	4d	2d	.	2ff
.	4d	.	.	.
=233	=233	=233	=233	=233
2.A	2c	2e	1a_	2ee
.	2A	2c	.	2.ee
4G	.	.	.	.
2F	2a	1d	1a_	.
.	.	.	.	4dd
2D	[2f	.	.	[2dd
=234	=234	=234	=234	=234
1A	4f]	1e	0a]	4dd]
.	4e	.	.	4cc#
.	2.e	.	.	2cc#
1D	.	1f	.	1dd
.	4d	.	.	.
.	[2d	.	.	.
=235	=235	=235	=235	=235
[0A	2d]	[0e	[0a	[0ee
.	4c#	.	.	.
.	4B	.	.	.
.	1c#	.	.	.
=236	=236	=236	=236	=236
0A]	0c#	0e]	0a]	0ee]
==	==	==	==	==
*-	*-	*-	*-	*-
!!!CDT: 1525/^1526/-1594/2/2
!!!OCY: Italia
!!!AGN: Mass (Parody)
!!!AST: renaissance, vocal
!!!ASW: Madrigal 1566 (Palestrina)
!!!PWK: Masses, Book 9
!!!RNB: Cadence finals: D
!!!YOR: Le Opere Complete, v. 25, p. 54
!!!YOO: Rome, Italy: Fratelli Scalera
!!!END: 1992//
!!!EED: John Miller
!!!YEC: Copyright 2000, John Miller
!!!YEN: United States of America
!!!YEM: Rights to all derivative electronic formats reserved.
!!!YEM: Refer to licensing agreement for further details.
!!!YEM: This file must be accompanied by the licensing agreement.
!!!YEM: A copy of the licensing agreement may be found at http://www.music-cog.ohio-state.edu/HumdrumDatabases/Palestrina/license.txt
!!!EMD: converted to Humdrum by Bret Aarden
